frontend/public/svg/files/file-contract.svg

<svg width="142" height="174" viewBox="0 0 142 174" fill="none" xmlns="http://www.w3.org/2000/svg">
<g clip-path="url(#clip0)">
<path d="M54.256 173.886C53.1702 173.685 52.0749 173.538 50.9744 173.446C42.7846 173.145 34.5876 172.997 26.4044 172.567C21.7063 172.32 17.0069 171.803 12.3528 171.107C7.38828 170.366 2.50781 164.424 2.23937 159.027C1.97684 153.764 1.76345 148.495 1.69519 143.227C1.36922 118.08 1.07559 92.9329 0.814363 67.7859C0.654876 53.0794 0.599751 38.3717 0.362813 23.6665C0.293241 19.38 0.00121459 15.0778 1.76939 11.0807C2.76726 8.72155 4.12057 6.52895 5.78225 4.57952C7.52939 2.61642 10.1219 1.9155 12.8148 1.84264C19.0973 1.67331 25.3917 1.64549 31.6584 1.22412C52.7636 -0.190286 73.8609 0.946576 94.9661 1.08375C97.0749 1.0406 99.1705 1.42857 101.124 2.22401C103.078 3.01946 104.849 4.20552 106.327 5.70953C113.15 12.2073 120.482 18.1661 127.564 24.3934C130.26 26.7641 132.749 29.3749 135.505 31.6695C138.166 33.884 139.115 36.701 139.189 39.9788C139.397 49.5173 139.575 59.0564 139.81 68.5952C140.187 83.8583 140.749 99.1142 140.949 114.383C141.095 125.489 140.785 136.602 140.673 147.712C140.635 151.529 140.517 155.345 140.542 159.161C140.608 167.986 133.617 172.832 126.244 172.958C112.779 173.187 99.311 173.286 85.8449 173.468C84.7436 173.543 83.6482 173.683 82.5632 173.887L54.256 173.886ZM93.1979 9.45527C91.0779 9.29578 89.4056 9.08477 87.7299 9.05786C73.4736 8.83037 59.217 8.62278 44.9597 8.43552C38.6772 8.3502 32.3947 8.28673 26.1122 8.24512C22.8633 8.2228 19.6053 8.12409 16.3663 8.31115C12.0233 8.56515 10.4672 9.84002 9.88564 14.1252C9.40474 18.0115 9.17909 21.9255 9.2102 25.8413C9.19445 30.2125 9.62908 34.5834 9.65861 38.9559C9.75575 53.1013 9.79946 67.2471 9.78981 81.3938C9.80734 105.418 9.81331 129.442 9.8076 153.466C9.78069 154.699 9.90008 155.932 10.1633 157.138C11.3572 162.026 14.119 164.226 18.5643 164.329C24.8488 164.472 31.1306 164.964 37.413 164.942C59.9806 164.865 82.5475 164.624 105.115 164.468C111.624 164.423 118.136 164.569 124.642 164.42C129.565 164.306 131.862 161.925 131.808 157.096C131.695 146.55 131.462 136.006 131.256 125.46C131.194 122.318 131.074 119.178 130.958 116.037C130.589 106.167 130.016 96.2999 129.882 86.4266C129.705 73.4061 129.874 60.3805 129.878 47.3575C129.855 46.6286 129.795 45.9018 129.699 45.1789C122.328 45.1789 115.265 45.2301 108.204 45.1474C106.075 45.1474 103.951 44.9136 101.871 44.4508C97.491 43.4131 96.1409 41.7525 95.6906 37.231C95.3021 33.3245 95.0409 29.405 94.6897 25.4939C94.2198 20.2675 93.7184 15.0401 93.1979 9.45527ZM102.649 15.0597L102.007 15.2847C103.097 22.45 104.189 29.6148 105.271 36.7163C108.917 37.097 122.486 36.0902 124.851 35.2396C117.392 28.4589 110.02 21.759 102.649 15.0597Z" fill="black"/>
<path d="M69.1043 90.4954C57.6538 90.4954 46.2034 90.4902 34.7534 90.4816C33.1823 90.4987 31.6124 90.3924 30.0581 90.1627C27.5332 89.7518 26.4108 88.592 26.5617 86.8495C26.6996 85.2592 27.8489 84.4584 30.3522 84.3554C32.5949 84.2641 34.8428 84.3167 37.0862 84.2313C52.3375 83.6518 67.5849 82.9042 82.8408 82.513C92.2625 82.2715 101.697 82.5334 111.129 82.6318C114.176 82.664 115.878 84.5431 114.755 86.7254C114.087 87.8583 113 88.6833 111.73 89.0226C108.686 89.757 105.576 90.183 102.448 90.2952C91.3358 90.4409 80.2207 90.3523 69.1056 90.3523L69.1043 90.4954Z" fill="black"/>
<path d="M26.9906 108.175C26.3749 104.266 27.1691 103.232 30.7376 103.015C35.775 102.707 40.8202 102.365 45.8635 102.349C66.0584 102.283 86.2532 102.29 106.449 102.371C108.688 102.44 110.923 102.623 113.143 102.921C113.886 102.943 114.592 103.249 115.116 103.777C115.639 104.304 115.941 105.012 115.958 105.755C116.095 107.193 115.183 108.389 113.441 108.89C112.362 109.189 111.246 109.333 110.126 109.317C95.5437 109.196 80.9618 109.017 66.3793 108.891C55.9436 108.8 45.5078 108.797 35.0721 108.683C32.4086 108.653 29.7485 108.355 26.9906 108.175Z" fill="black"/>
<path d="M28.2699 124.698C27.4692 121.972 27.6208 121.169 29.4047 120.563C30.8877 120.065 32.4434 119.82 34.0075 119.836C47.9219 119.986 61.8409 120.115 75.7507 120.461C86.7457 120.734 97.7334 121.298 108.724 121.743C109.622 121.748 110.518 121.83 111.403 121.985C112.217 122.099 112.962 122.505 113.5 123.126C114.038 123.747 114.333 124.543 114.33 125.365C114.326 126.187 114.026 126.979 113.483 127.597C112.94 128.214 112.192 128.613 111.377 128.721C110.269 128.906 109.144 128.965 108.023 128.894C101.408 128.637 94.7897 128.409 88.1804 128.037C76.7536 127.395 65.3353 126.601 53.9084 125.976C47.8589 125.648 41.7964 125.566 35.743 125.306C33.2902 125.199 30.8434 124.912 28.2699 124.698Z" fill="black"/>
<path d="M101.242 145.921C99.0107 145.823 96.7791 145.766 94.5476 145.606C93.5532 145.496 92.5687 145.317 91.6 145.069C91.0349 144.992 90.5216 144.698 90.1711 144.247C89.8206 143.797 89.6611 143.228 89.7261 142.661C89.711 142.034 89.9381 141.426 90.3608 140.963C90.7841 140.499 91.3696 140.217 91.9951 140.175C93.7672 139.952 95.5498 139.807 97.3324 139.697C100.68 139.491 104.022 139.303 107.37 139.172C108.375 139.146 109.381 139.223 110.37 139.404C112.208 139.719 113.127 140.651 113.24 142.152C113.307 142.888 113.105 143.623 112.67 144.222C112.235 144.82 111.599 145.241 110.877 145.404C109.137 145.789 107.368 146.027 105.588 146.117C104.144 146.227 102.689 146.138 101.238 146.138L101.242 145.921Z" fill="black"/>
<path d="M32.9864 66.5535C35.5632 66.5535 38.1399 66.5424 40.7161 66.5608C41.4978 66.5667 42.4127 66.4183 43.0257 66.7649C43.8606 67.2151 44.5248 67.9266 44.916 68.791C45.0212 69.0562 45.0691 69.3404 45.0568 69.6252C45.0444 69.9101 44.972 70.1897 44.8442 70.445C44.7166 70.7003 44.5365 70.9254 44.3158 71.1059C44.095 71.2864 43.8387 71.419 43.5633 71.4938C42.5201 71.8686 41.4195 72.0582 40.3111 72.0543C35.2737 71.8961 30.2383 71.6415 25.2049 71.3776C24.4271 71.2949 23.6591 71.1354 22.9122 70.9024C21.8148 70.6222 20.9118 69.8996 21.2957 68.7831C21.7253 67.9463 22.4168 67.2729 23.2648 66.8653C23.78 66.5693 24.5774 66.7478 25.2501 66.7459C27.8289 66.7373 30.407 66.7459 32.9858 66.7459L32.9864 66.5535Z" fill="black"/>
</g>
<defs>
<clipPath id="clip0">
<rect width="141.113" height="173.93" fill="white" transform="translate(0.0952148 0.0107422)"/>
</clipPath>
</defs>
</svg>

<svg xmlns="http://www.w3.org/2000/svg" width="142" height="174" fill="none" viewBox="0 0 142 174"><g fill="#000" clip-path="url(#a)"><path d="M54.256 173.886a33 33 0 0 0-3.282-.44c-8.19-.301-16.386-.449-24.57-.879-4.698-.247-9.397-.764-14.051-1.46-4.965-.741-9.845-6.683-10.114-12.08-.262-5.263-.476-10.532-.544-15.8q-.49-37.72-.88-75.441C.654 53.079.6 38.372.362 23.666.293 19.38 0 15.079 1.769 11.081A25.1 25.1 0 0 1 5.782 4.58c1.747-1.964 4.34-2.665 7.033-2.737 6.282-.17 12.577-.198 18.843-.619C52.764-.19 73.861.947 94.966 1.084a15.5 15.5 0 0 1 11.361 4.626c6.823 6.497 14.155 12.456 21.237 18.683 2.696 2.371 5.185 4.982 7.941 7.276 2.661 2.215 3.61 5.032 3.684 8.31.208 9.538.386 19.077.621 28.616.377 15.263.939 30.52 1.139 45.788.146 11.106-.164 22.219-.276 33.329-.038 3.817-.156 7.633-.131 11.449.066 8.825-6.925 13.671-14.298 13.797-13.465.229-26.933.328-40.4.51a28 28 0 0 0-3.28.419zM93.198 9.456c-2.12-.16-3.792-.371-5.468-.398a15156 15156 0 0 0-42.77-.622 2709 2709 0 0 0-18.848-.19c-3.249-.023-6.507-.122-9.746.065-4.343.254-5.899 1.529-6.48 5.814a90 90 0 0 0-.676 11.716c-.016 4.371.42 8.742.449 13.115q.145 21.218.13 42.438.027 36.036.019 72.072a15.6 15.6 0 0 0 .355 3.672c1.194 4.888 3.956 7.088 8.401 7.191 6.285.143 12.567.635 18.849.613 22.568-.077 45.135-.318 67.702-.474 6.509-.045 13.021.101 19.527-.048 4.923-.114 7.22-2.495 7.166-7.324-.113-10.546-.346-21.09-.552-31.636-.062-3.142-.182-6.282-.298-9.423-.369-9.87-.942-19.737-1.076-29.61-.177-13.02-.008-26.047-.004-39.07a22 22 0 0 0-.179-2.178c-7.371 0-14.434.051-21.495-.032-2.129 0-4.253-.233-6.333-.696-4.38-1.038-5.73-2.699-6.18-7.22-.389-3.907-.65-7.826-1.001-11.737-.47-5.227-.972-10.454-1.492-16.039m9.451 5.604-.642.225c1.09 7.165 2.182 14.33 3.264 21.431 3.646.381 17.215-.626 19.58-1.476z"/><path d="M69.104 90.495q-17.175 0-34.35-.013a30 30 0 0 1-4.696-.32c-2.525-.41-3.647-1.57-3.496-3.312.138-1.59 1.287-2.392 3.79-2.495 2.243-.09 4.49-.038 6.734-.124 15.252-.58 30.499-1.327 45.755-1.718 9.422-.242 18.856.02 28.288.119 3.047.032 4.749 1.911 3.626 4.093a5 5 0 0 1-3.025 2.298 46.7 46.7 0 0 1-9.282 1.272c-11.112.146-22.227.057-33.342.057zm-42.114 17.68c-.615-3.909.18-4.943 3.748-5.16 5.037-.308 10.082-.65 15.126-.666a8323 8323 0 0 1 60.585.022c2.239.069 4.474.252 6.694.55a2.9 2.9 0 0 1 2.815 2.834c.137 1.438-.775 2.634-2.517 3.135a11.8 11.8 0 0 1-3.315.427c-14.582-.121-29.164-.3-43.747-.426-10.435-.091-20.871-.094-31.307-.208-2.663-.03-5.324-.328-8.081-.508m1.279 16.523c-.8-2.726-.65-3.529 1.135-4.135a14 14 0 0 1 4.602-.727c13.915.15 27.834.279 41.744.625 10.995.273 21.982.837 32.973 1.282.898.005 1.794.087 2.679.242a3.4 3.4 0 0 1-.026 6.736 14.7 14.7 0 0 1-3.354.173c-6.615-.257-13.233-.485-19.843-.857-11.426-.642-22.845-1.436-34.272-2.061-6.05-.328-12.112-.41-18.165-.67-2.453-.107-4.9-.394-7.473-.608m72.972 21.223c-2.231-.098-4.463-.155-6.694-.315a21 21 0 0 1-2.948-.537 2.18 2.18 0 0 1-1.874-2.408 2.43 2.43 0 0 1 2.27-2.486 84 84 0 0 1 5.336-.478 450 450 0 0 1 10.038-.525 14.6 14.6 0 0 1 3 .232c1.838.315 2.757 1.247 2.87 2.748a3.05 3.05 0 0 1-2.363 3.252c-1.74.385-3.509.623-5.289.713-1.444.11-2.899.021-4.35.021zM32.986 66.554c2.577 0 5.154-.012 7.73.007.782.006 1.697-.143 2.31.204a4.33 4.33 0 0 1 1.89 2.026 2.025 2.025 0 0 1-1.353 2.703 9.5 9.5 0 0 1-3.252.56c-5.037-.158-10.073-.413-15.106-.676a12 12 0 0 1-2.293-.476c-1.097-.28-2-1.002-1.616-2.119a4.3 4.3 0 0 1 1.969-1.918c.515-.296 1.312-.117 1.985-.12 2.579-.008 5.157 0 7.736 0z"/></g><defs><clipPath id="a"><path fill="#fff" d="M.095.01h141.113v173.93H.095z"/></clipPath></defs></svg>
